X:1
T:Title
%%score { ( 1 3 ) | ( 2 4 ) }
L:1/8
M:3/4
K:C
V:1 treble nm="Grand Piano"
V:3 treble 
V:2 bass 
V:4 bass 
V:1
 z2 z2[Q:1/4=100] G>G | c3 [Ec] [GB]>[FA] | [EG]4 [FA]>[EG] | [B,DF]3 [G,CE] [G,DF]>[G,B,G] | %4
[M:2/4] [G,CE]4 |[M:1/4] E>E |[M:3/4] A3 [CEA] [Ec]>[Ac] | [^GB]4 [Ge]>[Gd] | %8
 [Ac]3 [^Fd] [Fc]>[FA] |[M:2/4] G4 |[M:4/4] z2 d6 | z2 e6 | z2 c6 | z2 G6 | %14
 [CEG]>[CEG] [CFA]2 [DGB]2 [CGc]2 |[M:9/8] [Gd]2 [Ge]- [Ge]3 [Af]3 | %16
[M:4/4] [Ac]>A G2 .c2 c2[Q:1/4=98][Q:1/4=97][Q:1/4=95][Q:1/4=94][Q:1/4=92][Q:1/4=91][Q:1/4=89][Q:1/4=88][Q:1/4=86][Q:1/4=84][Q:1/4=83][Q:1/4=81][Q:1/4=80][Q:1/4=78][Q:1/4=77] | %17
[M:3/4] [DFB]>c [Ec]4- | [Ec]2 z2 z2 |] %19
V:2
 z2 z2 G,>G, | C3 [C,G,] [C,G,]>[C,C] | [C,C]4 [C,C]>[C,C] | G,,3 G,, G,,>G,, |[M:2/4] C,4 | %5
[M:1/4] E,>E, |[M:3/4] A,3 A,, [A,,A,]>[A,,A,] | [E,B,]4 [E,B,]>[E,B,] | %8
 [A,C]3 [D,A,] [D,A,]>[D,C] |[M:2/4] [G,B,]4 |[M:4/4] z4 [G,B,]>[G,B,] [G,B,]>[G,D] | z2 C4 z2 | %12
 z4 [A,C]>[A,C] [F,A,]>[F,A,F] | [F,A,F]>[F,CF] C,>C, B,,>B,, C,2 | C,>C, F,2 F,2 E,2 | %15
[M:9/8] z2 C- C3 z3 |[M:4/4] [F,C]>[F,CF] [G,CE]2 .[G,CE]2 [G,CE]2 |[M:3/4] G,2 z2 z2 | z6 |] %19
V:3
 x6 | x6 | x6 | x6 |[M:2/4] x4 |[M:1/4] x2 |[M:3/4] x6 | x6 | x6 |[M:2/4] x4 | %10
[M:4/4] G>B z2 G>G G>B | A>G G>G G>G G2 | e>d z2 E>E F>d | c>A [CE]>[CE] [DF]>[DF] [CE]2 | x8 | %15
[M:9/8] x9 |[M:4/4] x8 |[M:3/4] x6 | x6 |] %19
V:4
 x6 | x6 | x6 | x6 |[M:2/4] x4 |[M:1/4] x2 |[M:3/4] x6 | x6 | x6 |[M:2/4] x4 |[M:4/4] x8 | %11
 [G,CD]>[G,B,D] C,>C, E,>G, C2 | x8 | x8 | x8 |[M:9/8] .[G,B,]3 _B,A,G, [F,C]3 |[M:4/4] x8 | %17
[M:3/4] G,,->[G,,G,E] [C,G,]4- | [C,G,]2 z2 z2 |] %19

